X:252
T:Ode to a Butterfly
C:Chris Thile
N:
L:1/8
Q:1/4=250
M:4/4
K:E
z6 [ec][ee] |: e2 e2 e2 ee | eg {g}fe c2 ec | Be [e2c2] [e2e2] ef | gg {g}fe fe cA | 
Bf zB f2 Bf | gg {g}fe c2 ec | Bf zB f2 Bf | gg {g}fe cd ec |1 BG FG E2 ee :|2 BG FG E2 gb | 
be gf eg c'e | be fg e'c' bg | fe ec (3Bce (3gfe | f2 fg f2 fA | {^A}Bf2B f2 Bf | 
gg {g}fe c2 ec | Bf zB f2 Bf | gg {g}fe cd ec | BG FG E2 gb | be gf eg c'e | be fg e'c' bg | 
fe ec (3Bce (3gfe | f2 fg f2 fA | ^Af zA f2 Ag | {g}fe dc B2 A2 | ^Af Ag {g}fe dc | 
B2 Bc B2 BB | =cg2c g2 ca | {a}gf ed c2 cB | =cg ca {a}gf ed | cd ec ^AB cA | 
Ag ec Ba fd | e2 [ec]e e2 ee | g{g}f ec3 ec | Be [e2c2] [e2e2] ef | gg {g}fe fe cA | 
Bf zB f2 Bf | gg {g}fe c2 ec | Bf zB f2 Bf | gg {g}fe cd ec | BG FG E4 | BG FG EA Bc | 
|: =dA FE =DA cd | =Df e=d cB Ae | {=G}AA eA A2 Ac | {c}BA GF E2 EF | =G=D B,A, =G,2 FG | 
=G,B A=G FE =Dc | =df ed cB Ag | aa gf e2 Bc :| {g}aa gf e4 | 
 

